X: 61
T: No_54_Song_Used_in_Treatment_of_Sick_(c).krn
N: Derived from No_54_Song_Used_in_Treatment_of_Sick_(c).krn
%%abc-version 2.0
%%abcx-abcm2ps-target-version 5.9.1 (29 Sep 2008)
%%abc-creator hum2abc beta
%%abcx-conversion-date 2019/03/15 08:36:49
%%humdrum-veritas 2787479150
%%humdrum-veritas-data 1067949710
%%linebreak <none>
%%barnumbers 0
L: 1/8
M: 2/4
K: Eb clef=bass
B,/F,3/ [I:setbarnb 1]| 
B,4- | 
B,4 | 
F,2E,2 | 
F,2(3E,E,E, | 
E,3E, | 
E,4 | 
(3G,F,F,F,2- | 
F,2E,2 | 
F,2E,E, | 
F,2(3E,E,E, | 
E,3E, | 
E,4- | 
E,4 |]  



